X: 210
T: Old Yeller Dog Came Trotting Through
B: canberra pickers and fiddlers
B: old time tunes update
B: tunes
M:2/4
L:1/16
R: reel
Q: 1/4=100
K:G
V:1 
D2- |\
D2E2 {E}G2AG | BABc BAGB | ADAB AGEF | GFGA GDB,C |
D2E2 {E}G2AG | BABc BA{F}G2 | A2AG BGAF | {F}G6 :|
|: ef |\
{f}g4 e4 | d6 G2 | {^A}B3=A G4 | {^D}E6 =D2 |
{f}g4 e4 | d6 G2 | {^A}B3c =A2F2 | {F}G6 :|
% abcbook-tune_id 67a7d9ec1937615ebced7931
% abcbook-tune_composer_id 
% abcbook-link-0 https://www.youtube.com/watch?v=Q8ZSJRcdnGc
% abcbook-link-title-0 Old Yeller Dog Come Trottin Through the Meetinghouse
% abcbook-boost 0
% abcbook-difficulty 0
% abcbook-tags old time tunes
% abcbook-tablature 
% abcbook-transpose 
% abcbook-tuning GDGD
% abcbook-lastupdated 1739214980791
% abcbook-src-url 
% abcbook-soundfonts 
% abcbook-repeats 1


